fileicons/icons/pdf.svg

<svg xmlns="http://www.w3.org/2000/svg" width="24" height="24" viewBox="0 0 24 24"><path d="M14 9h5.5L14 3.5V9M7 2h8l6 6v12a2 2 0 0 1-2 2H7a2 2 0 0 1-2-2V4a2 2 0 0 1 2-2m4.93 10.44c.41.9.93 1.64 1.53 2.15l.41.32c-.87.16-2.07.44-3.34.93l-.11.04.5-1.04c.45-.87.78-1.66 1.01-2.4m6.48 3.81c.18-.18.27-.41.28-.66.03-.2-.02-.39-.12-.55-.29-.47-1.04-.69-2.28-.69l-1.29.07-.87-.58c-.63-.52-1.2-1.43-1.6-2.56l.04-.14c.33-1.33.64-2.94-.02-3.6a.853.853 0 0 0-.61-.24h-.24c-.37 0-.7.39-.79.77-.37 1.33-.15 2.06.22 3.27v.01c-.25.88-.57 1.9-1.08 2.93l-.96 1.8-.89.49c-1.2.75-1.77 1.59-1.88 2.12-.04.19-.02.36.05.54l.03.05.48.31.44.11c.81 0 1.73-.95 2.97-3.07l.18-.07c1.03-.33 2.31-.56 4.03-.75 1.03.51 2.24.74 3 .74.44 0 .74-.11.91-.3m-.41-.71l.09.11c-.01.1-.04.11-.09.13h-.04l-.19.02c-.46 0-1.17-.19-1.9-.51.09-.1.13-.1.23-.1 1.4 0 1.8.25 1.9.35M8.83 17c-.65 1.19-1.24 1.85-1.69 2 .05-.38.5-1.04 1.21-1.69l.48-.31m3.02-6.91c-.23-.9-.24-1.63-.07-2.05l.07-.12.15.05c.17.24.19.56.09 1.1l-.03.16-.16.82-.05.04z" fill="#f44336"/></svg>

<?xml version="1.0" encoding="UTF-8" standalone="no"?>
<svg
   xmlns:dc="http://purl.org/dc/elements/1.1/"
   xmlns:cc="http://creativecommons.org/ns#"
   xmlns:rdf="http://www.w3.org/1999/02/22-rdf-syntax-ns#"
   xmlns:svg="http://www.w3.org/2000/svg"
   xmlns="http://www.w3.org/2000/svg"
   xmlns:sodipodi="http://sodipodi.sourceforge.net/DTD/sodipodi-0.dtd"
   xmlns:inkscape="http://www.inkscape.org/namespaces/inkscape"
   version="1.1"
   width="24"
   height="24"
   viewBox="0 0 24 24"
   id="svg2"
   inkscape:version="0.91 r13725"
   sodipodi:docname="pdf.svg">
  <metadata
     id="metadata10">
    <rdf:RDF>
      <cc:Work
         rdf:about="">
        <dc:format>image/svg+xml</dc:format>
        <dc:type
           rdf:resource="http://purl.org/dc/dcmitype/StillImage" />
      </cc:Work>
    </rdf:RDF>
  </metadata>
  <defs
     id="defs8" />
  <sodipodi:namedview
     pagecolor="#ffffff"
     bordercolor="#666666"
     borderopacity="1"
     objecttolerance="10"
     gridtolerance="10"
     guidetolerance="10"
     inkscape:pageopacity="0"
     inkscape:pageshadow="2"
     inkscape:window-width="729"
     inkscape:window-height="480"
     id="namedview6"
     showgrid="false"
     inkscape:zoom="9.8333333"
     inkscape:cx="12"
     inkscape:cy="11.898305"
     inkscape:window-x="0"
     inkscape:window-y="0"
     inkscape:window-maximized="0"
     inkscape:current-layer="svg2" />
  <path
     d="M14,9H19.5L14,3.5V9M7,2H15L21,8V20A2,2 0 0,1 19,22H7C5.89,22 5,21.1 5,20V4A2,2 0 0,1 7,2M11.93,12.44C12.34,13.34 12.86,14.08 13.46,14.59L13.87,14.91C13,15.07 11.8,15.35 10.53,15.84V15.84L10.42,15.88L10.92,14.84C11.37,13.97 11.7,13.18 11.93,12.44M18.41,16.25C18.59,16.07 18.68,15.84 18.69,15.59C18.72,15.39 18.67,15.2 18.57,15.04C18.28,14.57 17.53,14.35 16.29,14.35L15,14.42L14.13,13.84C13.5,13.32 12.93,12.41 12.53,11.28L12.57,11.14C12.9,9.81 13.21,8.2 12.55,7.54C12.39,7.38 12.17,7.3 11.94,7.3H11.7C11.33,7.3 11,7.69 10.91,8.07C10.54,9.4 10.76,10.13 11.13,11.34V11.35C10.88,12.23 10.56,13.25 10.05,14.28L9.09,16.08L8.2,16.57C7,17.32 6.43,18.16 6.32,18.69C6.28,18.88 6.3,19.05 6.37,19.23L6.4,19.28L6.88,19.59L7.32,19.7C8.13,19.7 9.05,18.75 10.29,16.63L10.47,16.56C11.5,16.23 12.78,16 14.5,15.81C15.53,16.32 16.74,16.55 17.5,16.55C17.94,16.55 18.24,16.44 18.41,16.25M18,15.54L18.09,15.65C18.08,15.75 18.05,15.76 18,15.78H17.96L17.77,15.8C17.31,15.8 16.6,15.61 15.87,15.29C15.96,15.19 16,15.19 16.1,15.19C17.5,15.19 17.9,15.44 18,15.54M8.83,17C8.18,18.19 7.59,18.85 7.14,19C7.19,18.62 7.64,17.96 8.35,17.31L8.83,17M11.85,10.09C11.62,9.19 11.61,8.46 11.78,8.04L11.85,7.92L12,7.97C12.17,8.21 12.19,8.53 12.09,9.07L12.06,9.23L11.9,10.05L11.85,10.09Z"
     id="path4"
     style="fill:#f44336;fill-opacity:1" />
</svg>
